X:1
T:Full Surrender
T:Daniel Brink Towner
T:Full Surrender
T:Public Domain, 
T:Public Domain, 
C:Daniel Brink Towner
Z:Public Domain,
%%score ( 1 2 ) ( 3 4 )
L:1/8
M:4/4
K:D
V:1 treble 
V:2 treble 
V:3 bass 
V:4 bass 
V:1
 [DA]3 [DB] [DA]2 [DF]2 | [Fd]3 [GB] [FA]2 [DF]2 | [DB]3 [Gc] [Fd]2 [Fd]2 | [Ec]2 [DB]2 [CA]4 | %4
w: 1.~Sav- ior, ’tis a|full sur- ren- der,|All I leave to|fol- low Thee;|
w: 2.~As I come in|deep con- tri- tion,|At this con- se-|crat- ed hour,|
w: 3.~No with- hold- ing—|full con- fess- ion;|Plea- sures, rich- es,|all must flee;|
w: 4.~Be this theme my|song and sto- ry,|Now and un- til|life is o’er;|
w: 5.~Oh, the joy of|full sal- va- tion!|Oh, the peace of|love di- vine!|
 [DA]3 [DB] [DA]2 [DF]2 | [Fd]3 [GB] [FA]2 [DF]2 | D3 [DE] [DF]2 [FA]2 | [DF]2 [CE]2 D4 || %8
w: Thou my Lead- er|and De- fend- er|From this hour shalt|er be. *|
w: Hear, O Christ, my|heart’s pe- ti- tion,|Let me feel the|it’s pow’r! I|
w: Ho- ly Spir- it,|take pos- ses- sion!|I no more, but|in me. *|
w: This my rap- ture,|this my glo- ry,|Till I reach the|ing shore. *|
w: Oh, the bliss of|con- se- cra- tion!|I am His, and|is mine. *|
"^Refrain" [FA]3 [DF] [FA]2 [Fd]2 | [Gc]6 z2 | [EG]3 [CE] [EG]2 [GB]2 | [FA]6 z2 | %12
w: ||||
w: ren- der all! I|sur-|ren- der all! All|I|
w: ||||
w: ||||
w: ||||
 [Fd]3 [Fd] [Ac]2 [GB]2 | [FA]3 [GB] [FA]2 [EG]2 | [DF]3 [FA] [DF]2 [CE]2 | D6 z2 |] %16
w: ||||
w: have I bring to|Je- sus, I sur-|ren- der all. *||
w: ||||
w: ||||
w: ||||
V:2
 x8 | x8 | x8 | x8 | x8 | x8 | D3 x5 | x4 D4 || x8 | x8 | x8 | x8 | x8 | x8 | x8 | D6 x2 |] %16
w: ||||||ev-||||||||||
w: ||||||Spir-|sur-|||||||||
w: ||||||Thou||||||||||
w: ||||||shin-||||||||||
w: ||||||He||||||||||
V:3
 [D,F,]3 [D,G,] [D,F,]2 [D,A,]2 | [D,A,]3 [D,D] [D,D]2 [D,A,]2 | G,3 [E,A,] [D,A,]2 [D,A,]2 | %3
w: ~ ~ ~ ~|~ ~ ~ ~|~ ~ ~ ~|
 [E,A,]2 [E,^G,]2 (A,2 =G,2) | [D,F,]3 [D,G,] [D,F,]2 [D,A,]2 | [D,A,]3 [D,D] [D,D]2 [D,A,]2 | %6
w: ~ ~ ~ *|~ ~ ~ ~|~ ~ ~ ~|
 [F,A,]3 [G,B,] A,2 [A,D]2 | [A,,A,]2 [A,,G,]2 [D,F,]4 || [D,D]3 [D,D] [D,D]2 [D,A,]2 | %9
w: ~ ~ ~ ~|~ ~ ~|~ I sur- ren-|
 A,A,A,[A,C] [A,E]2 z2 | [A,C]3 A, [A,C]2 [A,C]2 | [D,D][D,D][D,D][D,D] [D,D]2 z2 | %12
w: der all! ~ ~ ~|ren- der all! *||
 [D,A,]3 [D,A,] [D,A,]2 (B,C) | [D,D]3 [D,D] [D,D]2 [G,B,]2 | A,3 [A,D] [A,,A,]2 [A,,G,]2 | %15
w: |||
 [D,F,]6 z2 |] %16
w: |
V:4
 x8 | x8 | G,3 x5 | x4 A,,4 | x8 | x8 | x4 A,2 x2 | x8 || x8 | A,A,A, x5 | x3 A, x4 | x8 | x6 D,2 | %13
w: ||~|~|||~|||~ I sur-||||
 x8 | A,3 x5 | x8 |] %16
w: |||

